shared/images/iconfont/kb-iconfont-search-16.svg

<?xml version="1.0" encoding="UTF-8"?>
<svg width="16px" height="16px" viewBox="0 0 16 16" version="1.1" xmlns="http://www.w3.org/2000/svg" xmlns:xlink="http://www.w3.org/1999/xlink">
    <!-- Generator: sketchtool 41.2 (35397) - http://www.bohemiancoding.com/sketch -->
    <title>4D7F95A9-B957-484C-B71E-5681DAECA23C</title>
    <desc>Created with sketchtool.</desc>
    <defs></defs>
    <g id="Icons" stroke="none" stroke-width="1" fill="none" fill-rule="evenodd">
        <g id="Style-guide---Desktop---Icons-2" transform="translate(-401.000000, -1425.000000)">
            <g id="kb-iconfont-search-16" transform="translate(401.000000, 1425.000000)">
                <g id="icon">
                    <rect id="icon-area" fill="#D8D8D8" opacity="0" x="0" y="0" width="16" height="16"></rect>
                    <path d="M6.4759474,2.09150178 C8.89244209,2.09150178 10.8582413,4.03253369 10.8582413,6.41840082 C10.8582413,8.80397209 8.89244209,10.7451519 6.4759474,10.7451519 C4.05945271,10.7451519 2.09350362,8.80397209 2.09350362,6.41840082 C2.09350362,4.03253369 4.05945271,2.09150178 6.4759474,2.09150178 M15.8438948,14.5184591 L11.5992926,10.3050467 C11.7189801,10.1445464 11.8027776,10.0318275 11.8612409,9.95261955 L11.8683865,9.94299916 C11.9161315,9.88094761 11.9622526,9.81857538 12.0070745,9.75492043 L12.0111345,9.74946887 L12.0109721,9.74946887 C13.6737674,7.3899066 13.3056107,4.05275183 11.106414,1.88158897 C9.87754673,0.668136449 8.24365827,-1.77635684e-15 6.50599735,-1.77635684e-15 C4.76833644,-1.77635684e-15 3.13477278,0.668136449 1.90574307,1.88142863 C0.676875767,3.09472081 7.99360578e-15,4.70790075 7.99360578e-15,6.42385858 C7.99360578e-15,8.13965607 0.676713369,9.75299635 1.90574307,10.9661282 C3.13120001,12.1762136 4.76102852,12.8425863 6.49479188,12.8425863 C7.53414046,12.8425863 8.56975389,12.5942197 9.49623572,12.121217 C9.60033297,12.0633343 9.90905198,11.886319 10.1568717,11.6884595 L14.4677323,15.8470357 C14.4935536,15.8725298 14.6327289,16 14.8350771,16 C14.9237465,16 15.0562635,15.9741853 15.1843957,15.8512046 L15.3997357,15.6459695 C15.5642451,15.489638 15.7371992,15.3251293 15.861109,15.2029503 C16.1019456,14.9650058 15.9851813,14.6658115 15.8438948,14.5184591" id="Fill-1" fill="#000000"></path>
                </g>
            </g>
        </g>
    </g>
</svg>

<svg xmlns="http://www.w3.org/2000/svg" width="16" height="16" viewBox="0 0 16 16">
    <path fill="#000" fill-rule="evenodd" d="M6.476 2.092c2.416 0 4.382 1.94 4.382 4.326 0 2.386-1.966 4.327-4.382 4.327-2.417 0-4.382-1.941-4.382-4.327 0-2.385 1.965-4.326 4.382-4.326m9.368 12.426l-4.245-4.213.262-.352.007-.01a5.51 5.51 0 0 0 .14-.188l.003-.006c1.663-2.36 1.295-5.696-.905-7.867A6.505 6.505 0 0 0 6.506 0a6.506 6.506 0 0 0-4.6 1.881A6.341 6.341 0 0 0 0 6.424a6.34 6.34 0 0 0 1.906 4.542 6.489 6.489 0 0 0 4.589 1.877c1.04 0 2.075-.249 3.001-.722.104-.058.413-.235.66-.433l4.312 4.159a.55.55 0 0 0 .367.153.498.498 0 0 0 .35-.149l.215-.205c.164-.156.337-.32.461-.443.24-.238.124-.537-.017-.685"/>
</svg>
